X:368
%%etbk:tnset id:180,pos:1,rep:3x,ant:
%%etbk:wsite http://www.trad.katesplacedoolin.com/tunes/wallopthespot.html
%%etbk:pldat 2014-05-14T16:27,2013-11-26T16:08,2013-10-05T15:28,2013-10-04T15:17,2013-10-03T18:59,2013-10-02T15:19,2013-09-29T15:57,2013-05-14T17:56,2013-05-07T18:46,2013-04-30T16:37
T:Spot the Wallop
Z: Piano Box Version by Martin Fleischmann
H: Created 2013-02-19 /  Last Modified 2013-03-25
R:Jig
M:6/8
K: Dmaj
|: "D"!2!F!1!EF !1!D!2!F!3!A | !4!B!3!A!2!F !5!d2!3!A | !2!FEF !1!D!2!F!3!A | "A"!4!B!3!A!2!F !3!AFE |
"D"!2!F2F !1!D!2!F!3!A | !4!B!3!A!2!F !5!d!3!de | !5!fed !4!e!3!d!2!B | "A"!2!B!1!A!2!F !4!A!2!F!1!E:|
|: "A"!2!Bcd !5!e!1!AA | !5!f!1!AA !4!e!1!AA | !2!Bcd !5!e!1!AA | !2!B!1!A!2!F !4!AFE |
!2!Bcd !5!e!1!AA | !3!fed !2!efg | !5!age !2!e!1!d!2!B | !2!B!1!A!2!F !4!A!2!F!1!E:|
|: "D"!1!D!2!F!3!A !5!d2!3!d | !4!ed!2!c !3!d2!1!D | !1!D!2!F!3!A !5!d2!3!A |  "A"!4!B!3!A!2!F !3!AF!1!E |
"D"!1!D!2!F!3!A !5!d2!3!d | !4!edc !3!d2e | !5!fed !4!e!3!d!2!B |  "A"!2!B!1!A!2!F !4!A!2!F!1!E:|


